skins/stone/images/artwork/folder.svg

<?xml version="1.0" encoding="UTF-8" standalone="no"?>
<!-- Generator: Adobe Illustrator 9.0, SVG Export Plug-In  -->
<svg
   xmlns:xml="http://www.w3.org/XML/1998/namespace"
   xmlns:svg="http://www.w3.org/2000/svg"
   xmlns="http://www.w3.org/2000/svg"
   xmlns:sodipodi="http://inkscape.sourceforge.net/DTD/sodipodi-0.dtd"
   xmlns:inkscape="http://www.inkscape.org/namespaces/inkscape"
   width="48pt"
   height="48pt"
   viewBox="0 0 144 144"
   xml:space="preserve"
   id="svg2"
   sodipodi:version="0.32"
   inkscape:version="0.41"
   sodipodi:docname="folder.svg"
   sodipodi:docbase="/mnt/vdrsrc/xxv/devlop/XXV-Skins/stone/images/artwork"
   inkscape:export-filename="/mnt/vdrsrc/xxv/devlop/XXV-Skins/stone/images/folder.png"
   inkscape:export-xdpi="24.000000"
   inkscape:export-ydpi="24.000000"><defs
   id="defs95" />
<sodipodi:namedview
   inkscape:current-layer="svg2"
   inkscape:window-y="42"
   inkscape:window-x="10"
   id="base"
   pagecolor="#ffffff"
   bordercolor="#666666"
   borderopacity="1.0"
   inkscape:pageopacity="0.0"
   inkscape:pageshadow="2"
   inkscape:window-width="640"
   inkscape:window-height="541"
   inkscape:cy="417.84947"
   inkscape:cx="305.25953"
   inkscape:zoom="0.43415836" />
<g
   id="Layer_x0020_2"
   style="fill-rule:nonzero;clip-rule:nonzero;fill:#FFFFFF;stroke:#FFFFFF;stroke-width:0;stroke-miterlimit:4;"
   inkscape:export-filename="/mnt/vdrsrc/xxv/devlop/XXV-Skins/stone/folder.png"
   inkscape:export-xdpi="24.000000"
   inkscape:export-ydpi="24.000000"><path
   style="fill:none;stroke:none;"
   d="M144,144H0V0h144v144z"
   id="path5" />
<path
   style="opacity:0.2;fill:#000000;stroke:none;"
   d="M142.619,92.638L110.871,15.87c-0.402-0.974-1.182-1.747-2.16-2.139c-0.979-0.393-2.074-0.376-3.039,0.051l-27.213,12.03c-1.421,0.628-2.329,2.028-2.329,3.574c0,0.011,0.021,0.784,0.052,1.907l-18.051-7.34    c-1.477-0.602-3.17-0.246-4.281,0.897L6.93,73.137c-0.895,0.922-1.281,2.223-1.033,3.482c0.248,1.262,1.098,2.32,2.275,2.834l18.37,8.021l-7.802,4.174c-1.121,0.6-1.879,1.705-2.037,2.967c-0.159,1.26,0.305,2.52,1.242,3.377l43.857,40.089    c1.235,1.129,3.045,1.349,4.512,0.546l73.919-40.408c0.447-0.244,0.815-0.586,1.13-0.971c1.397-1.061,1.945-2.946,1.256-4.61z"
   id="path7" />
<g
   style="stroke:none;"
   id="g9"><path
   id="path11"
   d="M59.217,131.637L14.252,90.533l-0.18-1.085l75.835-40.565l45.499,41.104l-76.189,41.65z" />


			<linearGradient
   id="aigrd1"
   gradientUnits="userSpaceOnUse"
   x1="19.8828"
   y1="91.0132"
   x2="134.8701"
   y2="91.0132">
				<stop
   offset="0"
   style="stop-color:#CFF0FF"
   id="stop14" />


				<stop
   offset="1"
   style="stop-color:#6DB8FF"
   id="stop16" />


			</linearGradient>


			<path
   id="path18"
   style="fill:url(#aigrd1);"
   d="M62.666,129.227L20.053,91.266l-0.17-1.003l71.865-37.464l43.122,37.959l-72.204,38.469z" />


			<linearGradient
   id="aigrd2"
   gradientUnits="userSpaceOnUse"
   x1="92.4307"
   y1="97.6382"
   x2="42.7989"
   y2="77.1293">
				<stop
   offset="0"
   style="stop-color:#0032A4"
   id="stop21" />


				<stop
   offset="1"
   style="stop-color:#3995E5"
   id="stop23" />


			</linearGradient>


			<path
   style="fill:url(#aigrd2);"
   d="M92.355,47.463l43.576,39.367c0.941,0.85,1.412,2.104,1.264,3.363s-0.896,2.37-2.01,2.979L61.268,133.58c-1.468,0.803-3.277,0.583-4.512-0.545L12.898,92.946c-0.938-0.857-1.402-2.117-1.243-3.378s0.917-2.366,2.038-2.966l74.189-39.687     c1.457-0.779,3.246-0.56,4.473,0.548z M89.729,50.368c-1.44,0.77-72.45,38.757-74.191,39.687c0.919,0.838,42.637,38.976,43.857,40.089c1.444-0.787,71.016-38.822,73.914-40.406c-2.407-2.173-42.395-38.299-43.578-39.37l-0.002,0.001z"
   id="path25" />


			<path
   id="path20"
   style="opacity:0.15;fill:#000047;"
   d="M102.805,61.723l-35.592,44.708L21.156,86.969l69.576-34.996l12.072,9.75z" />


			<path
   id="path21"
   d="M50.485,22.96l55.546,22.589L63.406,98.047L3.107,71.717L50.485,22.96z" />


			<linearGradient
   id="aigrd3"
   gradientUnits="userSpaceOnUse"
   x1="0.8496"
   y1="59.8013"
   x2="110.4102"
   y2="59.8013">
				<stop
   offset="0"
   style="stop-color:#BFBFBF"
   id="stop30" />


				<stop
   offset="1"
   style="stop-color:#7084CC"
   id="stop32" />


			</linearGradient>


			<path
   style="fill:url(#aigrd3);"
   d="M48.803,19.804L1.883,68.09c-0.895,0.921-1.281,2.223-1.033,3.482c0.247,1.261,1.098,2.319,2.274,2.834l59.715,26.074c1.612,0.704,3.496,0.246,4.606-1.119l42.212-51.99c0.782-0.964,1.062-2.24,0.753-3.441s-1.168-2.186-2.317-2.652     L53.084,18.906c-1.477-0.601-3.171-0.245-4.281,0.898z"
   id="path34" />


			<path
   d="M51.609,22.532l55.009,22.372L64.405,96.893L4.69,70.818l46.919-48.286z"
   id="path36" />


			<linearGradient
   id="aigrd4"
   gradientUnits="userSpaceOnUse"
   x1="20.6514"
   y1="58.9077"
   x2="77.5928"
   y2="58.9077">
				<stop
   offset="0"
   style="stop-color:#FFFFFF"
   id="stop39" />


				<stop
   offset="1"
   style="stop-color:#DFDFEC"
   id="stop41" />


			</linearGradient>


			<path
   id="path43"
   style="fill:url(#aigrd4);"
   d="M51.77,27.608l46.65,18.865L62.914,90.209L12.678,68.275L51.77,27.606v0.002z" />


			<linearGradient
   id="aigrd5"
   gradientUnits="userSpaceOnUse"
   x1="35.2422"
   y1="64.311"
   x2="93.5708"
   y2="72.5198">
				<stop
   offset="0"
   style="stop-color:#FFFFFF"
   id="stop46" />


				<stop
   offset="0.2022"
   style="stop-color:#CDF8FF"
   id="stop48" />


				<stop
   offset="1"
   style="stop-color:#0074FF"
   id="stop50" />


			</linearGradient>


			<path
   style="opacity:0.6;fill:url(#aigrd5);"
   d="M74.119,36.583l-0.357-13.037l29.085-12.857l32.652,78.957l-75.478,41.288L29.333,57.953l44.786-21.369z"
   id="path52" />


			<linearGradient
   id="aigrd6"
   gradientUnits="userSpaceOnUse"
   x1="73.8438"
   y1="108.4019"
   x2="127.6324"
   y2="82.4796">
				<stop
   offset="0"
   style="stop-color:#FFFFFF"
   id="stop55" />


				<stop
   offset="1"
   style="stop-color:#B1B1C5"
   id="stop57" />


			</linearGradient>


			<path
   id="path38"
   style="fill:url(#aigrd6);"
   d="M126.39,67.293l-76.55,38.391l10.005,25.25l75.835-40.93l-9.29-22.711z" />


			<path
   id="path39"
   style="opacity:0.75;"
   d="M77.706,39.252l-0.342-12.44l27.181-12.015l-1.698-4.108L73.762,23.546l0.357,13.037L29.333,57.953l30.688,72.981l4.002-2.19L34.965,59.645l42.741-20.393z" />


			<linearGradient
   id="aigrd7"
   gradientUnits="userSpaceOnUse"
   x1="87.2275"
   y1="113.1079"
   x2="121.3573"
   y2="93.2346">
				<stop
   offset="0"
   style="stop-color:#FFFFFF"
   id="stop62" />


				<stop
   offset="0.1066"
   style="stop-color:#DDDDE7"
   id="stop64" />


				<stop
   offset="0.2778"
   style="stop-color:#AEAEC4"
   id="stop66" />


				<stop
   offset="0.4407"
   style="stop-color:#8888A9"
   id="stop68" />


				<stop
   offset="0.5909"
   style="stop-color:#6D6D96"
   id="stop70" />


				<stop
   offset="0.7239"
   style="stop-color:#5D5D8A"
   id="stop72" />


				<stop
   offset="0.8258"
   style="stop-color:#575786"
   id="stop74" />


			</linearGradient>


			<path
   id="path76"
   style="opacity:0.46;fill:url(#aigrd7);"
   d="M134.839,85.161l-75.876,40.315l1.859,3.864l75.836-40.928l-1.819-3.252z" />


			<linearGradient
   id="aigrd8"
   gradientUnits="userSpaceOnUse"
   x1="104.9521"
   y1="79.8618"
   x2="37.8989"
   y2="53.9456">
				<stop
   offset="0"
   style="stop-color:#0032A4"
   id="stop79" />


				<stop
   offset="1"
   style="stop-color:#3995E5"
   id="stop81" />


			</linearGradient>


			<path
   style="fill:url(#aigrd8);"
   d="M103.664,8.683c0.979,0.393,1.758,1.166,2.16,2.14l31.748,76.768c0.764,1.847,0.016,3.977-1.737,4.936l-73.341,40.119c-0.973,0.531-2.123,0.627-3.17,0.262c-1.045-0.365-1.887-1.156-2.316-2.178L27.297,60.081     c-0.208-0.495-0.307-1.01-0.307-1.518c0-1.465,0.826-2.863,2.229-3.532c0,0,34.345-16.39,42.15-20.114c-0.008-0.292-0.287-10.541-0.287-10.577c0-1.546,0.908-2.946,2.329-3.575l27.214-12.03c0.965-0.427,2.06-0.444,3.039-0.051z M102.205,12.317     c-2.025,0.893-25.842,11.422-27.207,12.027c0.037,1.453,0.333,12.229,0.333,12.239c0,0.476-0.271,0.911-0.696,1.112c0,0-41.711,19.902-43.729,20.867c0.875,2.08,28.719,68.291,29.709,70.646c2.236-1.223,71.484-39.103,73.342-40.118     c-0.818-1.974-30.844-74.571-31.752-76.774z"
   id="path83" />


			<linearGradient
   id="aigrd9"
   gradientUnits="userSpaceOnUse"
   x1="70.8623"
   y1="54.1187"
   x2="105.8568"
   y2="73.56">
				<stop
   offset="0"
   style="stop-color:#A8DCFF"
   id="stop86" />


				<stop
   offset="0.3202"
   style="stop-color:#3C64B4"
   id="stop88" />


				<stop
   offset="0.9888"
   style="stop-color:#000000"
   id="stop90" />


			</linearGradient>


			<path
   id="path92"
   style="opacity:0.3;fill:url(#aigrd9);"
   d="M53.443,103.654c0,0-2.049-26.173,27.981-43.589c29.966-17.38,20.78-47.747,20.78-47.747L125.07,67.51l-71.627,36.144z" />


		</g>


	</g>


</svg>

<?xml version="1.0" encoding="UTF-8" standalone="no"?>
<!-- Generator: Adobe Illustrator 9.0, SVG Export Plug-In  -->
<svg
   xmlns:dc="http://purl.org/dc/elements/1.1/"
   xmlns:cc="http://web.resource.org/cc/"
   xmlns:rdf="http://www.w3.org/1999/02/22-rdf-syntax-ns#"
   xmlns:svg="http://www.w3.org/2000/svg"
   xmlns="http://www.w3.org/2000/svg"
   xmlns:sodipodi="http://sodipodi.sourceforge.net/DTD/sodipodi-0.dtd"
   xmlns:inkscape="http://www.inkscape.org/namespaces/inkscape"
   width="64"
   height="64"
   viewBox="0 0 144 144"
   xml:space="preserve"
   id="svg2"
   sodipodi:version="0.32"
   inkscape:version="0.45.1"
   sodipodi:docname="folder.svg"
   sodipodi:docbase="/mnt/vdrsrc/xxv/svn/xxv/XXV-Skins/trunk/stone/images/artwork"
   inkscape:export-filename="/mnt/vdrsrc/xxv/devlop/XXV-Skins/stone/images/folder.png"
   inkscape:export-xdpi="22.5"
   inkscape:export-ydpi="22.5"
   inkscape:output_extension="org.inkscape.output.svg.inkscape"
   version="1.0"><metadata
   id="metadata57"><rdf:RDF><cc:Work
       rdf:about=""><dc:format>image/svg+xml</dc:format><dc:type
         rdf:resource="http://purl.org/dc/dcmitype/StillImage" /></cc:Work></rdf:RDF></metadata><defs
   id="defs95" />
<sodipodi:namedview
   inkscape:current-layer="svg2"
   inkscape:window-y="42"
   inkscape:window-x="10"
   id="base"
   pagecolor="#ffffff"
   bordercolor="#666666"
   borderopacity="1.0"
   inkscape:pageopacity="0.0"
   inkscape:pageshadow="2"
   inkscape:window-width="872"
   inkscape:window-height="620"
   inkscape:cy="32"
   inkscape:cx="32"
   inkscape:zoom="6.359375"
   width="64px"
   height="64px" />
<g
   id="Layer_x0020_2"
   style="fill:#ffffff;fill-rule:nonzero;stroke:#ffffff;stroke-width:0;stroke-miterlimit:4"
   inkscape:export-filename="/mnt/vdrsrc/xxv/devlop/XXV-Skins/stone/folder.png"
   inkscape:export-xdpi="24.000000"
   inkscape:export-ydpi="24.000000"><path
   style="fill:none;stroke:none"
   d="M 144,144 L 0,144 L 0,0 L 144,0 L 144,144 z "
   id="path5" />
<path
   style="opacity:0.2;fill:#000000;stroke:none"
   d="M 142.619,92.638 L 110.871,15.87 C 110.469,14.896 109.689,14.123 108.711,13.731 C 107.732,13.338 106.637,13.355 105.672,13.782 L 78.459,25.812 C 77.038,26.44 76.13,27.84 76.13,29.386 C 76.13,29.397 76.151,30.17 76.182,31.293 L 58.131,23.953 C 56.654,23.351 54.961,23.707 53.85,24.85 L 6.93,73.137 C 6.035,74.059 5.649,75.36 5.897,76.619 C 6.145,77.881 6.995,78.939 8.172,79.453 L 26.542,87.474 L 18.74,91.648 C 17.619,92.248 16.861,93.353 16.703,94.615 C 16.544,95.875 17.008,97.135 17.945,97.992 L 61.802,138.081 C 63.037,139.21 64.847,139.43 66.314,138.627 L 140.233,98.219 C 140.68,97.975 141.048,97.633 141.363,97.248 C 142.76,96.187 143.308,94.302 142.619,92.638 z "
   id="path7" />
<g
   style="stroke:none"
   id="g9"><path
   id="path11"
   d="M 59.217,131.637 L 14.252,90.533 L 14.072,89.448 L 89.907,48.883 L 135.406,89.987 L 59.217,131.637 L 59.217,131.637 z " />


			<linearGradient
   id="aigrd1"
   gradientUnits="userSpaceOnUse"
   x1="19.882799"
   y1="91.013199"
   x2="134.8701"
   y2="91.013199">
				<stop
   offset="0"
   style="stop-color:#CFF0FF"
   id="stop14" />


				<stop
   offset="1"
   style="stop-color:#6DB8FF"
   id="stop16" />


			</linearGradient>


			<path
   id="path18"
   style="fill:url(#aigrd1)"
   d="M 62.666,129.227 L 20.053,91.266 L 19.883,90.263 L 91.748,52.799 L 134.87,90.758 L 62.666,129.227 L 62.666,129.227 z " />


			<linearGradient
   id="aigrd2"
   gradientUnits="userSpaceOnUse"
   x1="92.430702"
   y1="97.638199"
   x2="42.798901"
   y2="77.129303">
				<stop
   offset="0"
   style="stop-color:#0032A4"
   id="stop21" />


				<stop
   offset="1"
   style="stop-color:#3995E5"
   id="stop23" />


			</linearGradient>


			<path
   style="fill:url(#aigrd2)"
   d="M 92.355,47.463 L 135.931,86.83 C 136.872,87.68 137.343,88.934 137.195,90.193 C 137.047,91.452 136.299,92.563 135.185,93.172 L 61.268,133.58 C 59.8,134.383 57.991,134.163 56.756,133.035 L 12.898,92.946 C 11.96,92.089 11.496,90.829 11.655,89.568 C 11.814,88.307 12.572,87.202 13.693,86.602 L 87.882,46.915 C 89.339,46.136 91.128,46.355 92.355,47.463 L 92.355,47.463 z M 89.729,50.368 C 88.289,51.138 17.279,89.125 15.538,90.055 C 16.457,90.893 58.175,129.031 59.395,130.144 C 60.839,129.357 130.411,91.322 133.309,89.738 C 130.902,87.565 90.914,51.439 89.731,50.368 L 89.729,50.369 L 89.729,50.368 z "
   id="path25" />


			<path
   id="path20"
   style="opacity:0.15;fill:#000047"
   d="M 102.805,61.723 L 67.213,106.431 L 21.156,86.969 L 90.732,51.973 L 102.804,61.723 L 102.805,61.723 z " />


			<path
   id="path21"
   d="M 50.485,22.96 L 106.031,45.549 L 63.406,98.047 L 3.107,71.717 L 50.485,22.96 z " />


			<linearGradient
   id="aigrd3"
   gradientUnits="userSpaceOnUse"
   x1="0.84960002"
   y1="59.8013"
   x2="110.4102"
   y2="59.8013">
				<stop
   offset="0"
   style="stop-color:#BFBFBF"
   id="stop30" />


				<stop
   offset="1"
   style="stop-color:#7084CC"
   id="stop32" />


			</linearGradient>


			<path
   style="fill:url(#aigrd3)"
   d="M 48.803,19.804 L 1.883,68.09 C 0.988,69.011 0.602,70.313 0.85,71.572 C 1.097,72.833 1.948,73.891 3.124,74.406 L 62.839,100.48 C 64.451,101.184 66.335,100.726 67.445,99.361 L 109.657,47.371 C 110.439,46.407 110.719,45.131 110.41,43.93 C 110.101,42.729 109.242,41.744 108.093,41.278 L 53.084,18.906 C 51.607,18.305 49.913,18.661 48.803,19.804 L 48.803,19.804 z "
   id="path34" />


			<path
   d="M 51.609,22.532 L 106.618,44.904 L 64.405,96.893 L 4.69,70.818 L 51.609,22.532 L 51.609,22.532 z "
   id="path36" />


			<linearGradient
   id="aigrd4"
   gradientUnits="userSpaceOnUse"
   x1="20.6514"
   y1="58.9077"
   x2="77.592796"
   y2="58.9077">
				<stop
   offset="0"
   style="stop-color:#FFFFFF"
   id="stop39" />


				<stop
   offset="1"
   style="stop-color:#DFDFEC"
   id="stop41" />


			</linearGradient>


			<path
   id="path43"
   style="fill:url(#aigrd4)"
   d="M 51.77,27.608 L 98.42,46.473 L 62.914,90.209 L 12.678,68.275 L 51.77,27.606 L 51.77,27.608 z " />


			<linearGradient
   id="aigrd5"
   gradientUnits="userSpaceOnUse"
   x1="35.242199"
   y1="64.310997"
   x2="93.570801"
   y2="72.519798">
				<stop
   offset="0"
   style="stop-color:#FFFFFF"
   id="stop46" />


				<stop
   offset="0.2022"
   style="stop-color:#CDF8FF"
   id="stop48" />


				<stop
   offset="1"
   style="stop-color:#0074FF"
   id="stop50" />


			</linearGradient>


			<path
   style="opacity:0.6;fill:url(#aigrd5)"
   d="M 74.119,36.583 L 73.762,23.546 L 102.847,10.689 L 135.499,89.646 L 60.021,130.934 L 29.333,57.953 L 74.119,36.584 L 74.119,36.583 z "
   id="path52" />


			<linearGradient
   id="aigrd6"
   gradientUnits="userSpaceOnUse"
   x1="73.843803"
   y1="108.4019"
   x2="127.6324"
   y2="82.479599">
				<stop
   offset="0"
   style="stop-color:#FFFFFF"
   id="stop55" />


				<stop
   offset="1"
   style="stop-color:#B1B1C5"
   id="stop57" />


			</linearGradient>


			<path
   id="path38"
   style="fill:url(#aigrd6)"
   d="M 126.39,67.293 L 49.84,105.684 L 59.845,130.934 L 135.68,90.004 L 126.39,67.293 L 126.39,67.293 z " />


			<path
   id="path39"
   style="opacity:0.75"
   d="M 77.706,39.252 L 77.364,26.812 L 104.545,14.797 L 102.847,10.689 L 73.762,23.546 L 74.119,36.583 L 29.333,57.953 L 60.021,130.934 L 64.023,128.744 L 34.965,59.645 L 77.706,39.252 z " />


			<linearGradient
   id="aigrd7"
   gradientUnits="userSpaceOnUse"
   x1="87.227501"
   y1="113.1079"
   x2="121.3573"
   y2="93.234596">
				<stop
   offset="0"
   style="stop-color:#FFFFFF"
   id="stop62" />


				<stop
   offset="0.1066"
   style="stop-color:#DDDDE7"
   id="stop64" />


				<stop
   offset="0.2778"
   style="stop-color:#AEAEC4"
   id="stop66" />


				<stop
   offset="0.4407"
   style="stop-color:#8888A9"
   id="stop68" />


				<stop
   offset="0.5909"
   style="stop-color:#6D6D96"
   id="stop70" />


				<stop
   offset="0.7239"
   style="stop-color:#5D5D8A"
   id="stop72" />


				<stop
   offset="0.8258"
   style="stop-color:#575786"
   id="stop74" />


			</linearGradient>


			<path
   id="path76"
   style="opacity:0.46000001;fill:url(#aigrd7)"
   d="M 134.839,85.161 L 58.963,125.476 L 60.822,129.34 L 136.658,88.412 L 134.839,85.16 L 134.839,85.161 z " />


			<linearGradient
   id="aigrd8"
   gradientUnits="userSpaceOnUse"
   x1="104.9521"
   y1="79.861801"
   x2="37.898899"
   y2="53.945599">
				<stop
   offset="0"
   style="stop-color:#0032A4"
   id="stop79" />


				<stop
   offset="1"
   style="stop-color:#3995E5"
   id="stop81" />


			</linearGradient>


			<path
   style="fill:url(#aigrd8)"
   d="M 103.664,8.683 C 104.643,9.076 105.422,9.849 105.824,10.823 L 137.572,87.591 C 138.336,89.438 137.588,91.568 135.835,92.527 L 62.494,132.646 C 61.521,133.177 60.371,133.273 59.324,132.908 C 58.279,132.543 57.437,131.752 57.008,130.73 L 27.297,60.081 C 27.089,59.586 26.99,59.071 26.99,58.563 C 26.99,57.098 27.816,55.7 29.219,55.031 C 29.219,55.031 63.564,38.641 71.369,34.917 C 71.361,34.625 71.082,24.376 71.082,24.34 C 71.082,22.794 71.99,21.394 73.411,20.765 L 100.625,8.735 C 101.59,8.308 102.685,8.291 103.664,8.684 L 103.664,8.683 z M 102.205,12.317 C 100.18,13.21 76.363,23.739 74.998,24.344 C 75.035,25.797 75.331,36.573 75.331,36.583 C 75.331,37.059 75.06,37.494 74.635,37.695 C 74.635,37.695 32.924,57.597 30.906,58.562 C 31.781,60.642 59.625,126.853 60.615,129.208 C 62.851,127.985 132.099,90.105 133.957,89.09 C 133.139,87.116 103.113,14.519 102.205,12.316 L 102.205,12.317 z "
   id="path83" />


			<linearGradient
   id="aigrd9"
   gradientUnits="userSpaceOnUse"
   x1="70.862297"
   y1="54.118698"
   x2="105.8568"
   y2="73.559998">
				<stop
   offset="0"
   style="stop-color:#A8DCFF"
   id="stop86" />


				<stop
   offset="0.3202"
   style="stop-color:#3C64B4"
   id="stop88" />


				<stop
   offset="0.9888"
   style="stop-color:#000000"
   id="stop90" />


			</linearGradient>


			<path
   id="path92"
   style="opacity:0.3;fill:url(#aigrd9)"
   d="M 53.443,103.654 C 53.443,103.654 51.394,77.481 81.424,60.065 C 111.39,42.685 102.204,12.318 102.204,12.318 L 125.07,67.51 L 53.443,103.654 z " />


		</g>


	</g>


</svg>
